static/assets/img/icons/theme/devices/imac.svg

<svg height="24" viewBox="0 0 24 24" width="24" xmlns="http://www.w3.org/2000/svg"><g fill="none" fill-rule="evenodd"><path d="m0 0h24v24h-24z" opacity="0"/><g fill="#000"><path d="m5 5v11h14v-11zm0-2h14c1.4201608 0 2 .7163444 2 1.6v12.8c0 .8836556-.5798392 1.6-2 1.6h-14c-1.42016079 0-2-.7163444-2-1.6v-12.8c0-.8836556.57983921-1.6 2-1.6zm7 15c.2761424 0 .5-.2238576.5-.5s-.2238576-.5-.5-.5-.5.2238576-.5.5.2238576.5.5.5z" fill-rule="nonzero"/><path d="m5 5v11h14v-11z" opacity=".3"/><rect height="1" opacity=".3" rx=".5" width="4" x="10" y="20"/></g></g></svg>

<svg width="24px" height="24px" viewBox="0 0 24 24" version="1.1" xmlns="http://www.w3.org/2000/svg" xmlns:xlink="http://www.w3.org/1999/xlink">
    <title>Icon For iMac</title>
    <g stroke="none" stroke-width="1" fill="none" fill-rule="evenodd">
        <rect opacity="0" x="0" y="0" width="24" height="24"></rect>
        <path d="M5,5 L5,16 L19,16 L19,5 L5,5 Z M5,3 L19,3 C20.4201608,3 21,3.7163444 21,4.6 L21,17.4 C21,18.2836556 20.4201608,19 19,19 L5,19 C3.57983921,19 3,18.2836556 3,17.4 L3,4.6 C3,3.7163444 3.57983921,3 5,3 Z M12,18 C12.2761424,18 12.5,17.7761424 12.5,17.5 C12.5,17.2238576 12.2761424,17 12,17 C11.7238576,17 11.5,17.2238576 11.5,17.5 C11.5,17.7761424 11.7238576,18 12,18 Z" fill="#000000" fill-rule="nonzero"></path>
        <polygon fill="#000000" opacity="0.3" points="5 5 5 16 19 16 19 5"></polygon>
        <rect fill="#000000" opacity="0.3" x="10" y="20" width="4" height="1" rx="0.5"></rect>
    </g>
</svg>
